X:12
T: Mohácsiné elküldte ja páváját
O: Mihók Antal (71), Egyházaskér (Torontál), 1968
K: Bb
M: 4/4
L: 1/4
D<G ^F<G | c B A>B | A G G/ z/ z |
w: Mo-há-csi-né el-küld-te a pá-vá-ját.
d d e<d | c<c A < F | B<B B z |
w: Néz-ze mög a fia sza-ba-du-lá-sát.
d<f e d | d<G A<B | c<c d A | B<G D z |
w: De a páva szo-mo-rú-an visz-sza-száll a ta-nyá-ra
D<G ^F<G | c < B A>B | A G G/ z/ z |
w: Hogy a fi-át vi-szik a-kasz-tó-fá-ra.
W: Mohácsiné, adjon Isten jó estét!
W: Hazahoztuk fiának a holttestjit.
W: Márványkőből csináltasson a fiának koporsót,
W: Vágássa rá, hogy a fia betyár volt.
%%https://library.hungaricana.hu/hu/view/ZTI_AP_07601-07620/?pg=444&layout=s

